-----BEGIN PGP PUBLIC KEY BLOCK-----
Version: Keybase OpenPGP v2.1.17
Comment: https://keybase.io/crypto

xm8EafqJGhMFK4EEACIDAwS4KFYi4oOMEXQoecICLdNRVewrv4R0CABko3CclZC0
iV56uFQlO+HSF/5mSbghwG6MReJFCYXa1H7tP/S3a6Pna9YypMJJoSquQRcrHx8b
ZMcYZvnjB2NkUP2vAYRQawLNFGlyaXMgQCBraW5nb2ZhbGxkYXRhwpYEExMKAB4F
Amn6iRoCGwEDCwkHAxUKCAIeAQIXgAMWAgECGQEACgkQfPETPtvnhqpRVAF9Ecxw
5CyUQ9IBozo0F1Cj+W4lawRWvCVqoblDVGKRzSj7wgHbS38nNcDMoVV05665AYDk
IM5J40Oy7fy2q5GCYWnWgdPdgbNQCEQW+kwP6/VZJH8j4K1B38cIRqXta/0YnX/O
VgRp+okaEggqhkjOPQMBBwIDBNvMwHjeE/4lIu03B8Zp28SzvISo+3R2TH8OZdNk
FE5s4qkduVpMLZLlK5Mg34XlY7gzEDdvgr1WwBkAn9kO1lMDAQoJwocEGBMKAA8F
Amn6iRoFCQ8JnAACGwwACgkQfPETPtvnhqpaNwGA606X3WR5wuxbTfuRalGbTmVk
tOOvb7hR9cKO3Ny7HSHMfC5rp2Rkuzj36CC5/snWAX0RSAihnflzuYAJxYh6S8p5
/DBGYeY2trEq4V/sNYpLpJrf2fWfvLD5OjuHW03HZl3OUgRp+okaEwgqhkjOPQMB
BwIDBFwlQ+TlBQ6VFo9PkRwqnmYBZC2MACEkamzybwrXpUAs9tNjZPc+6DPpAuFa
B4eb46Sewr+6g6t0Lj6YvCwwn63CwCcEGBMKAA8FAmn6iRoFCQ8JnAACGyIAagkQ
fPETPtvnhqpfIAQZEwoABgUCafqJGgAKCRAD+eEDsCspDAvSAQCQeHVTtcezU32v
AeCP/AZuK0H443h0wPqSgvG5YSI/kwEAxAPZUrvgR2yUt9wJvCRqGw9oGVUsgvH/
ftXtvLWJqUPbVQGAlXREtOGlAK5dvSXYOAkgs0zjxECVxz02mGRmbMnmwhKQeMnW
jFr2VXvxzpKDUxYgAYCkWGFC57T5nVg3CNs/9IWmJFxpMiQPOoErl/gQlxIzfj56
W8WJAJnCUjkRbp90JQk=
=6LLA
-----END PGP PUBLIC KEY BLOCK-----